!!!!SEGMENT: d-b--slg-bohn-ms-mus-111--021_jarzebski-adam--canzoni-e-concerti-21-tamburetta.krn
!!!cenid: 16xx:1794
!!!COM: Jarzębski, Adam
!!!COM-rismID: pe30017782
!!!CDT:
!!!CNT:
!!!GTL: Canzoni e Concerti
!!!OTL: 21. Tamburetta
!!!PDT: 1627
!!!AGN:
!!!SMS-siglum: D-B
!!!SMS-shelfmark: Slg Bohn Ms.mus. 111
!!!SMS-shelfwork: 021 G
!!!SMS-variant: Basso Continuo.: D-B Slg Bohn Ms.mus. 111:178-179
!!!SMS-altvar: Basso Continuo: D-B Slg Bohn Ms.mus. 111
!!!NIFC-rismSourceID: 1001062014
!!!NIFC-rismChildID: 1001062014
!!!NIFC-islandoraID: none
!!!URL-pdf-islandora:
!!!URL-scan: https://digital.staatsbibliothek-berlin.de/werkansicht/?PPN=PPN1049147219 @EN{Scan on Staatsbibliothek zu Berlin Website} @PL{Skany w portalu Staatsbibliothek zu Berlin}
!!!ONB-nifc: UWAGA: Prima vox: s. 34, Seconda vox: s. 94, Bassus sive Vox Tertia: s. 132, Basso continuo: s. 178-179. Uwaga: proszę wpisywać partie tylko występujące w danym koncercie i nazywać partie wg określeń podawanych przy danym utworze. Kody instr. dla humdrumowców podane zostaną na forum.
!!!AIN: 2 viola
!!!key: G
**kern	**fba	**kern	**kern	**kern
*part4	*part4	*part3	*part2	*part1
*staff4	*	*staff3	*staff2	*staff1
*I"Baſso Continúo.	*	*I"Tertia Vox.	*I"Seconda Vox.	*I"1 Vox.
*mI"Basso continuo	*	*mI"Bastarda II	*mI"Bastarda I	*mI"Soprano
*I'bc	*	*I'V 3	*I'V 2	*I'V 1
*	*	*mI'vla bastarda	*mI'vla bastarda	*
*	*	*Iviola	*Iviola	*
*ICklav	*	*ICstr	*ICstr	*
*IGcont	*	*	*	*
!	!	!LO:MO:mod=*clefC3	!	!
*clefG2	*	*clefC4	*clefC3	*clefG2
*k[]	*	*k[]	*k[]	*k[]
*G:	*	*G:	*G:	*G:
*M2/2	*	*M2/2	*M2/2	*M2/2
*met(C|)	*	*met(C|)	*met(C|)	*met(C|)
*mmet(c|)	*	*mmet(c|)	*mmet(c|)	*mmet(c|)
*all\right	*	*all\right	*all\right	*all\right
=1-	=1-	=1-	=1-	=1-
8dd\L	.	00r	0r	8dd\L
16dd\L	.	.	.	16dd\L
16dd\J	.	.	.	16dd\J
8dd\	.	.	.	8dd\
8dd\J	.	.	.	8dd\J
8dd\L	.	.	.	8dd\L
16dd\L	.	.	.	16dd\L
16dd\JJ	.	.	.	16dd\JJ
!LO:TX:t=P:problem=kreska pseudotaktowa	!	!	!	!LO:TX:t=P:problem=kreska pseudotaktowa
4dd\	.	.	.	4dd\
!LO:MO:mod=*clefF4	!	!	!	!
*clefC4	*	*	*	*
=2-	=2-	=2-	=2-	=2-
4c\	.	.	.	8ee\L
.	.	.	.	16ee\L
.	.	.	.	16dd\J
8c\L	.	.	.	8ee\
8c\J	.	.	.	8cc\J
4G/	.	.	.	8dd\L
.	.	.	.	16dd\L
.	.	.	.	16dd\JJ
!	!	!	!	!LO:TX:t=P:problem=kreska pseudotaktowa
4G/	.	.	.	4dd
=3-	=3-	=3-	=3-	=3-
8G/L	.	.	8g\L	8b/L
16G/L	.	.	16g\L	16b/L
16G/J	.	.	16g\JJ	16b/JJ
8G/	.	.	8g\L	8b/L
8G/J	.	.	8g\J	8b/J
8G/L	.	.	8g\L	8b/L
16G/L	.	.	16g\L	16b/L
16G/JJ	.	.	16g\JJ	16b/JJ
!LO:TX:t=P:problem=kreska pseudotaktowa	!	!	!LO:TX:t=P:problem=kreska pseudotaktowa	!LO:TX:t=P:problem=kreska pseudotaktowa
4G/	.	.	4g\	4b/
=4-	=4-	=4-	=4-	=4-
8A/L	.	.	8a\L	8cc\L
16A/L	.	.	16a\L	16cc\L
16G/J	.	.	16g\JJ	16b\J
8A/	.	.	8a\L	8cc\
!LO:SIC:v:s=8F#/J	!	!	!LO:SIC:v:s=8f#\J	!
8F/J	.	.	8f\J	8a\J
4G/	.	.	4g\	4b/
4A/	.	.	4.a\	4.cc\
!LO:MO:mod=*null:null	!	!	!	!
*clefF4	*	*	*	*
=5-	=5-	=5-	=5-	=5-
8D/L	.	8d\L	.	.
!	!	!	!	!LO:SIC:s=8bJ
16D/L	.	16d\L	8g\J	8b/
16D/JJ	.	16d\JJ	.	.
8D/L	.	8d\L	2g\	8b/L
8D/J	.	8d\J	.	16a/L
.	.	.	.	16g/JJ
8D/L	.	8d\L	.	4a/
16D/L	.	16d\L	.	.
16D/JJ	.	16d\JJ	.	.
!LO:TX:t=P:problem=kreska pseudotaktowa	!	!LO:TX:t=P:problem=kreska pseudotaktowa	!LO:TX:t=P:problem=kreska pseudotaktowa	!
4D/	.	4d\	4f#X\	4a/
*custos:E	*	*	*	*custos:g
!LO:LB:g=original	!	!	!	!LO:LB:g=original
=6-	=6-	=6-	=6-	=6-
8E\L	.	8e\L	8g\L	2g/
16E\L	.	16e\L	16g\L	.
!	!	!	!LO:SIC:v:s=16f#\JJ	!
16D\J	.	16d\JJ	16fny\JJ	.
8E\	.	8e\L	8g\L	.
8C\J	.	8c\J	8e\J	.
8D/L	.	8d\L	4f#X\	8dd\L
16D/L	.	16d\L	.	16dd\L
16D/JJ	.	16d\JJ	.	16dd\J
!LO:TX:t=P:problem=kreska pseudotaktowa	!	!LO:TX:t=P:problem=kreska pseudotaktowa	!LO:TX:t=P:problem=kreska pseudotaktowa	!
4D/	.	4c\	4f#\	8dd\
!	!	!	!	!LO:TX:t=P:problem=kreska pseudotaktowa
.	.	.	.	8dd\J
=7-	=7-	=7-	=7-	=7-
!	!	!	!LO:SIC:s=8gL	!
8GG/L	.	8G\L	8g\	4dd\
!	!	!	!LO:MO:mod=*null:null	!
*	*	*	*clefF4	*
!	!	!	!LO:SIC:s=16GL	!
16GG/L	.	16B\L	16G\LL	.
16GG/J	.	16B\JJ	16G\JJ	.
*	*	*	*custos:G	*
!	!	!	!LO:LB:g=original	!
8GG/	.	8B\L	8G\L	4dd\
8GG/J	.	8B\J	8G\J	.
8GG/L	6 4	8c\L	8G\L	8ee\L
8GG/J	5 3	16c\L	16G\L	16ee\L
.	.	16B\J	16G\JJ	16dd\J
!LO:TX:t=P:problem=kreska pseudotaktowa	!	!	!	!
4GG/	6 4	8c\	4G\	8ee\
!	!	!	!	!LO:TX:t=P:problem=kreska pseudotaktowa
.	5 3	8B\J	.	8dd\J
*	*	*custos:c	*	*
!	!	!LO:LB:g=original	!	!
=8-	=8-	=8-	=8-	=8-
8AA/L	.	4c\	8A\L	8cc\L
16AA/L	.	.	16A\L	16cc\L
16GG/J	.	.	16G\JJ	16b\J
8AA/	.	4r	8A\L	8cc\
!LO:SIC:v:s=8FF#/J	!	!	!LO:SIC:v:s=8F#\J	!
8FF/J	.	.	8F\J	8a\J
8GG/L	.	8r	8G\L	8b\L
16GG/L	.	8B\L	16G\L	8dd\
16GG/JJ	.	.	16G\JJ	.
!LO:TX:t=P:problem=kreska pseudotaktowa	!	!	!LO:TX:t=P:problem=kreska pseudotaktowa	!
4GG/	.	8B\	4G\	8dd\
!	!	!LO:TX:t=P:problem=kreska pseudotaktowa	!	!LO:TX:t=P:problem=kreska pseudotaktowa
.	.	8B\J	.	8dd\J
=9-	=9-	=9-	=9-	=9-
2D/	.	8B\L	2D/	8dd\L
.	.	16B\L	.	16dd\L
.	.	16A\JJ	.	16cc\J
.	.	8B\L	.	8dd\
.	.	8G\J	.	8b\J
2D/	.	8F#X/L	2D/	8a/L
.	.	16F#/L	.	16a/L
.	.	16E/J	.	16g/J
!	!	!LO:TX:t=P:problem:# above	!	!
.	.	8F#X/	.	8a/
!	!	!LO:TX:t=P:problem:# above	!	!
!	!	!LO:TX:t=P:problem=kreska pseudotaktowa	!	!LO:TX:t=P:problem=kreska pseudotaktowa
.	.	8F#X/J	.	8a/J
!	!	!	!LO:MO:mod=*null:null	!
*	*	*	*clefC4	*
=10-	=10-	=10-	=10-	=10-
!	!	!	!LO:SIC:s=8GL	!
8G\L	.	8G/L	8G/	2g/
!	!	!	!LO:SIC:s=16BL	!
16G\L	.	16G/L	16B\LL	.
16G\J	.	16G/J	16B\JJ	.
8G\	.	8G/	8B\L	.
8G\J	.	8G/J	8B\J	.
8G\L	.	8G/L	8B\L	8dd\L
16G\L	.	16G/L	16B\L	16dd\L
16G\JJ	.	16G/JJ	16B\JJ	16dd\J
!LO:TX:t=P:problem=kreska pseudotaktowa	!	!LO:TX:t=P:problem=kreska pseudotaktowa	!LO:TX:t=P:problem=kreska pseudotaktowa	!
4G\	.	4G/	4B\	8dd\
.	.	.	.	8dd\J
*	*	*	*	*custos:cc
!	!	!	!	!LO:LB:g=original
=11-	=11-	=11-	=11-	=11-
8A\L	.	8A/L	4c\	8cc\L
16A\L	.	16A/L	.	16cc\L
16G\J	.	16G/J	.	16b\J
8A\	.	8A/	4A/	8cc\
!LO:SIC:v:s=8F#\J	!	!LO:SIC:v:s=8F#/J	!	!
8F\J	.	8Fny/J	.	8a\J
*custos:G	*	*	*	*
!LO:LB:g=original	!	!	!	!
!	!	!	!LO:TX:t=P:problem=mixed beam	!
8G\L	.	8G/L	8G/L	4b/
16G\L	.	16G/L	8d\	.
16G\JJ	.	16G/JJ	.	.
!	!	!LO:TX:t=P:problem=kreska pseudotaktowa	!	!LO:TX:t=P:problem=kreska pseudotaktowa
4G\	.	4G/	8d\	4b/
!	!	!	!LO:TX:t=P:problem=kreska pseudotaktowa	!
.	.	.	8e\J	.
*	*	*clefF4	*	*
*	*	*custos:D	*	*
!	!	!LO:LB:g=original	!	!
=12-	=12-	=12-	=12-	=12-
8D/L	.	8D/L	8f#X\L	8a/L
16D/L	.	8D/	16f#\L	16a/L
16D/J	.	.	16e\JJ	16g/J
!	!	!	!LO:TX:t=P:problem:# above	!
8D/	.	8D/	8f#X\L	8a/
8D/J	.	8D/J	8g\J	8b/J
8D/L	.	4D/	8f#X\L	8a/L
16D/L	.	.	16f#\L	16a/L
16D/JJ	.	.	16e\JJ	16g/J
!	!	!	!LO:TX:t=P:problem:# above	!
!LO:TX:t=P:problem=kreska pseudotaktowa	!	!LO:TX:t=P:problem=kreska pseudotaktowa	!	!
4D/	.	4D/	8f#X\L	8a/
!	!	!	!LO:TX:t=P:problem=kreska pseudotaktowa	!LO:TX:t=P:problem=kreska pseudotaktowa
.	.	.	8f#\J	8a/J
*	*	*	*custos:g	*
!	!	!	!LO:LB:g=original	!
=13-	=13-	=13-	=13-	=13-
!	!	!	!LO:TX:t=P:problem=mixed beam	!
8E\L	.	8E\L	8g\L	2g/
16E\L	.	16E\L	8G/	.
16D\J	.	16D\JJ	.	.
8E\	.	8E\L	8G/	.
8C\J	.	8C\J	8G/J	.
4D/	.	4D/	8F/L	8dd\L
.	.	.	16F/L	16dd\L
.	.	.	16E/J	16dd\J
!LO:TX:t=P:problem=kreska pseudotaktowa	!	!LO:TX:t=P:problem=kreska pseudotaktowa	!	!
4D/	.	4D/	8F/	8dd\
!	!	!	!LO:TX:t=P:problem=kreska pseudotaktowa	!LO:TX:t=P:problem=kreska pseudotaktowa
.	.	.	8D/J	8dd\J
=14-	=14-	=14-	=14-	=14-
!	!	!LO:TX:t=P:problem=mixed beam	!LO:TX:t=P:problem=mixed beam	!
2AA/	.	8AA/L	8E/L	8cc#X\L
.	.	8A\	16e\L	16cc#\L
.	.	.	16d\JJ	16b\J
!	!	!	!	!LO:TX:t=P:problem:# above
.	.	8A\	8e\L	8cc#X\
.	.	8A\J	8fny\J	8dd\J
4AA/	.	4A\	8e\L	8cc#X\L
.	.	.	16e\L	16cc#\L
.	.	.	16d\J	16b\J
!	!	!LO:TX:t=P:problem=kreska pseudotaktowa	!	!LO:TX:t=P:problem:# above
4AA/	.	4A\	8e\	8cc#X\
!	!	!	!LO:TX:t=P:problem=kreska pseudotaktowa	!LO:TX:t=P:problem=kreska pseudotaktowa
.	.	.	8f\J	8dd\J
=15-	=15-	=15-	=15-	=15-
0AA	.	8A\L	8c#X\L	4a/
.	.	16A\L	16c#\L	.
.	.	16G\JJ	16B\J	.
!	!	!	!LO:TX:t=P:problem:# above	!
.	.	8A\L	8c#X\	4r
.	.	8B-X\J	8d\J	.
.	.	4A\	8c#X\L	8r
.	.	.	16c#\L	8ee\L
.	.	.	16B\JJ	.
!	!	!LO:TX:t=P:problem=kreska pseudotaktowa	!LO:TX:t=P:problem:# above	!
.	.	4A\	8c#X\L	8ee\
!	!	!	!LO:TX:t=P:problem=kreska pseudotaktowa	!LO:TX:t=P:problem=kreska pseudotaktowa
.	.	.	8d\J	8ee\J
=16-	=16-	=16-	=16-	=16-
*	*	*2\right	*	*
!	!	!	!LO:SIC:s=8AL	!
.	.	2A\	8A/	8cc#X\L
!	!	!	!LO:SIC:s=16eL	!
.	.	.	16e\LL	16cc#\L
.	.	.	16d\JJ	16b\J
.	.	.	8e\L	8cc#\
.	.	.	8f\J	8dd\J
*	*	*	*	*custos:cc
!	!	!	!	!LO:LB:g=original
!	!	!	!	!LO:TX:t=P:problem:# above
.	.	2AA/	8e\L	8cc#X\L
.	.	.	16e\L	16cc#\L
.	.	.	16d\JJ	16b\J
!	!	!	!	!LO:TX:t=P:problem:# above
.	.	.	8e\L	8cc#X\
!	!	!	!	!LO:TX:t=P:problem:# above
!	!	!	!LO:TX:t=P:problem=kreska pseudotaktowa	!LO:TX:t=P:problem=kreska pseudotaktowa
.	.	.	8e\J	8cc#X\J
=17-	=17-	=17-	=17-	=17-
*	*	*	*	*2\right
!	!	!LO:TX:t=P:problem=kreska pseudotaktowa	!LO:SIC:s=8dL	!
4D/	.	1D	8d\	2dd\
*	*	*	*clefF4	*
!	!	!	!LO:SIC:s=16DL	!
.	.	.	16D/LL	.
.	.	.	16D/JJ	.
4D/	.	.	8D/L	.
.	.	.	8D/J	.
4D/	.	.	8D/L	8r
.	.	.	16D/L	8dd\L
.	.	.	16D/JJ	.
!LO:TX:t=P:problem=kreska pseudotaktowa	!	!	!	!
4D/	.	.	4D/	8dd\
!	!	!	!	!LO:TX:t=P:problem=kreska pseudotaktowa
.	.	.	.	8dd\J
*	*	*custos:A	*	*
!	!	!LO:MO:mod=*clefC3	!	!
*	*	*clefC4	*	*
!	!	!LO:LB:g=original	!LO:LB:g=original	!
=18-	=18-	=18-	=18-	=18-
2AA/	.	8r	8C#X/L	8ee\L
.	.	8A/L	16C#/L	16ee\L
.	.	.	16BB/JJ	16dd\J
!	!	!	!LO:TX:t=P:problem:# above	!
.	.	8A/	8C#X/L	8ee\
.	.	8A/J	8D/J	8ff\J
4AA/	.	8c#X\L	4AA/	8ee\L
.	.	16c#\L	.	16ee\L
.	.	16Bny\J	.	16dd\J
!	!	!LO:TX:t=P:problem:# above	!LO:TX:t=P:problem=kreska pseudotaktowa	!
4AA/	.	8c#X\	4AA/	8ee\
!	!	!LO:TX:t=P:problem:# above	!	!
!	!	!LO:TX:t=P:problem=kreska pseudotaktowa	!	!LO:TX:t=P:problem=kreska pseudotaktowa
.	.	8c#X\J	.	8ee\J
=19-	=19-	=19-	=19-	=19-
4.BB/	.	8d\L	8BB/L	2dd\
.	.	16d\L	16BB/L	.
.	.	16cny\J	16AA/JJ	.
.	.	8d\	8BB/L	.
8GG/	.	8B\J	8GG/J	.
4.BB/	.	8d\L	8BB/L	8r
.	.	8d\	16BB/L	8dd\L
.	.	.	16AA/J	.
.	.	8d\	8BB/	8dd\
!LO:TX:t=P:problem=kreska pseudotaktowa	!	!	!	!
8C/	.	16c\L	8Cny/J	8ee\J
!	!	!LO:TX:t=P:problem=kreska pseudotaktowa	!	!
.	.	16B\JJ	.	.
=20-	=20-	=20-	=20-	=20-
2D/	.	8A/	2D/	2ff#X\
.	.	16d\LL	.	.
.	.	16e\JJ	.	.
.	.	8d\L	.	.
.	.	8c\J	.	.
*	*	*	*2\right	*
2E\	.	8.B\L	2E\	2gg\
.	.	16c\Jk	.	.
.	.	8B\L	.	.
!	!	!LO:TX:t=P:problem=kreska pseudotaktowa	!	!
.	.	8G\J	.	.
*	*	*custos:A	*	*
!	!	!LO:LB:g=original	!	!
=21-	=21-	=21-	=21-	=21-
1D	.	8A/L	1D	8ff#X\L
.	.	16A/L	.	16ff#\L
.	.	16G/J	.	16ee\J
!	!	!	!	!LO:TX:t=P:problem:# above
.	.	8A/	.	8ff#X\
!	!	!	!	!LO:TX:t=P:problem=kreska pseudotaktowa
.	.	8B/J	.	8gg\J
!	!	!	!	!LO:TX:t=P:problem:# above
.	.	8A/L	.	8ff#X\L
.	.	16A/L	.	16ff#\L
.	.	16G/J	.	16ee\J
!	!	!	!	!LO:TX:t=P:problem:# above
.	.	8A/	.	8ff#X\
!	!	!LO:TX:t=P:problem=kreska pseudotaktowa	!	!LO:TX:t=P:problem=kreska pseudotaktowa
.	.	8A/J	.	8ff#\J
!	!	!	!LO:MO:mod=*clefC3	!
*custos:GG	*	*	*clefC4	*
!LO:LB:g=original	!	!	!	!
=22-	=22-	=22-	=22-	=22-
2GG/	.	4G/	8r	8gg\L
.	.	.	8B\L	8dd\
*	*	*clefF4	*	*
.	.	4GG/	8B\	8dd\
.	.	.	8B\J	8dd\J
*	*	*	*	*custos:dd
!	!	!	!	!LO:LB:g=original
4GG/	.	4GG/	4B\	4dd\
!	!	!	!LO:TX:t=P:problem=kreska pseudotaktowa	!LO:TX:t=P:problem=kreska pseudotaktowa
4GG/	.	4GG/	4cny\	4ee\
=23-	=23-	=23-	=23-	=23-
2GG/	.	2GG/	8.B\L	8.dd\L
.	.	.	16c\Jk	16ee\Jk
.	.	.	8.B\L	8.dd\L
.	.	.	16c\Jk	16ee\Jk
!LO:TX:t=P:problem=kreska pseudotaktowa	!	!	!	!
2GG/	.	2GG/	8B\L	8dd\L
.	.	.	16B\L	16dd\L
.	.	.	16A\JJ	16ccny\J
.	.	.	8B\L	8dd\
!	!	!	!LO:TX:t=P:problem=kreska pseudotaktowa	!LO:TX:t=P:problem=kreska pseudotaktowa
.	.	.	8G\J	8b\J
=24-	=24-	=24-	=24-	=24-
2AA/	.	2AA/	8.e\L	8.cc\L
.	.	.	16f\Jk	16dd\Jk
.	.	.	8.e\L	8.cc\L
.	.	.	16f\Jk	16dd\Jk
4AA/	.	4AA/	8e\L	8cc\L
.	.	.	8e\J	8cc\J
*	*	*	*custos:g	*
!	!	!	!LO:LB:g=original	!
4GG/	.	4GG/	8g\L	8b/L
!	!	!	!LO:TX:t=P:problem=kreska pseudotaktowa	!LO:TX:t=P:problem=kreska pseudotaktowa
.	.	.	8g\J	8b/J
=25-	=25-	=25-	=25-	=25-
2AA/	.	2AA/	8e\L	8cc\L
.	.	.	16e\L	16cc\L
.	.	.	16d\JJ	16b\J
.	.	.	8e\L	8cc\
.	.	.	8f\J	8dd\J
!LO:TX:t=P:problem=kreska pseudotaktowa	!	!	!	!
2FF/	.	2FF/	8A/L	8cc\L
.	.	.	16A/L	16cc\L
.	.	.	16G/JJ	16b\J
.	.	.	8A/L	8cc\
!	!	!	!LO:TX:t=P:problem=kreska pseudotaktowa	!LO:TX:t=P:problem=kreska pseudotaktowa
.	.	.	8c/J	8a\J
=26-	=26-	=26-	=26-	=26-
1GG	.	1GG	8G/L	8r
.	.	.	8B/	8dd\L
.	.	.	8B/	8dd\
.	.	.	8A/J	8cc\J
.	.	.	8B\L	8dd\L
.	.	.	16B\L	16dd\L
.	.	.	16A\J	16cc\J
.	.	.	8B\	8dd\
!	!	!	!LO:TX:t=P:problem=kreska pseudotaktowa	!LO:TX:t=P:problem=kreska pseudotaktowa
.	.	.	8g\J	8b\J
=27-	=27-	=27-	=27-	=27-
2D/	.	4r	8.f#X\L	8.a/L
.	.	.	16g\Jk	16b/Jk
.	.	4D/	8.f#\L	8.a/L
.	.	.	16g\Jk	16b/Jk
*	*	*	*	*custos:a
!	!	!	!	!LO:LB:g=original
4D/	.	4D/	8.f#\L	8.a/L
.	.	.	16g\Jk	16b/Jk
!LO:TX:t=P:problem=kreska pseudotaktowa	!	!	!	!
4D/	.	4D/	8.f#\L	8.a/L
!	!	!	!LO:TX:t=P:problem=kreska pseudotaktowa	!LO:TX:t=P:problem=kreska pseudotaktowa
.	.	.	16g\Jk	16b/Jk
=28-	=28-	=28-	=28-	=28-
2D/	.	2D/	8.f#X\L	8.a/L
.	.	.	16g\Jk	16b/Jk
.	.	.	8.f#\L	8.a/L
.	.	.	16g\Jk	16b/Jk
2D/	.	2D/	8f#X\L	8a/L
.	.	.	16f#\L	16a/L
.	.	.	16e\JJ	16g/J
!	!	!	!LO:TX:t=P:problem:# above	!
.	.	.	8f#X\L	8a/
!	!	!	!	!LO:TX:t=P:problem=kreska pseudotaktowa
.	.	.	8f#\J	8a/J
=29-	=29-	=29-	=29-	=29-
!	!	!	!	!LO:TX:t=P:problem=mixed beam
2C/	.	2C/	8g\L	8g/L
.	.	.	8e\	8gg\
.	.	.	8e\	8gg\
.	.	.	8e\J	8gg\J
*	*	*	*custos:e	*
!	!	!	!LO:LB:g=original	!
4E\	.	4E\	4e\	4gg\
!LO:TX:t=P:problem=kreska pseudotaktowa	!	!	!LO:TX:t=P:problem=kreska pseudotaktowa	!
4D/	.	4D/	4fny\	8.aa\L
!	!	!	!	!LO:TX:t=P:problem=kreska pseudotaktowa
.	.	.	.	16dd\Jk
*	*	*custos:C	*	*
!	!	!LO:LB:g=original	!	!
=30-	=30-	=30-	=30-	=30-
2C/	.	2C/	8.e\L	8.gg\L
.	.	.	16f\Jk	16aa\Jk
.	.	.	8.e\L	8.gg\L
.	.	.	16f\Jk	16aa\Jk
2C/	.	2C/	8.e\L	8.gg\L
.	.	.	16f\Jk	16aa\Jk
.	.	.	8.e\L	8.gg\L
!	!	!	!LO:TX:t=P:problem=kreska pseudotaktowa	!LO:TX:t=P:problem=kreska pseudotaktowa
.	.	.	16f\Jk	16aa\Jk
=31-	=31-	=31-	=31-	=31-
!LO:TX:t=P:problem=kreska pseudotaktowa	!	!	!	!LO:TX:t=P:problem:# above
1D	.	1D	8A/L	8ff#X\L
.	.	.	16A/L	16ff#\L
.	.	.	16G/JJ	16ee\J
!	!	!	!	!LO:TX:b:t=P:problem:# below
.	.	.	8A/L	8ff#X\
.	.	.	8B/J	8gg\J
!	!	!	!	!LO:TX:t=P:problem:# above
.	.	.	8A/L	8ff#X\L
.	.	.	16A/L	16ff#\L
.	.	.	16G/JJ	16ee\J
.	.	.	8A/L	8ff#\
!	!	!	!	!LO:TX:t=P:problem:# above
.	.	.	8B/J	8ff#X\J
*	*	*	*	*custos:gg
!	!	!	!	!LO:LB:g=original
=32-	=32-	=32-	=32-	=32-
*2\right	*	*	*	*
2G\	.	1GG	2G/	8gg\L
.	.	.	.	8dd\
.	.	.	.	8dd\
.	.	.	.	8dd\J
8G\L	.	.	8r	8dd\L
8G\	.	.	8g\L	16dd\L
.	.	.	.	16ee\JJ
8G\	.	.	8g\	8.dd\L
!	!	!	!LO:TX:t=P:problem=kreska pseudotaktowa	!
8G\J	.	.	8g\J	.
!	!	!	!	!LO:TX:t=P:problem=kreska pseudotaktowa
.	.	.	.	16cc\Jk
!	!	!LO:MO:mod=*clefC3	!	!
*	*	*clefC4	*	*
=33-	=33-	=33-	=33-	=33-
8G\L	.	1r	8g\L	8b\L
16G\L	.	.	16g\L	8ee\
16A\J	.	.	16a\JJ	.
8G\	.	.	8g\L	8ee\
8F\J	.	.	8f\J	8dd\J
8E\L	.	.	8e\L	8cc\L
8A\	.	.	8a\	16cc\L
.	.	.	.	16dd\J
8A\	.	.	8a\	8cc\
!LO:TX:t=P:problem=kreska pseudotaktowa	!	!	!	!LO:TX:t=P:problem=kreska pseudotaktowa
8G\J	.	.	8g\J	8b\J
=34-	=34-	=34-	=34-	=34-
8D/L	.	8r	4f#X\	4a/
8D/	.	8d\L	.	.
8D/	.	8d\	2g\	4b/
8D/J	.	8d\J	.	.
*custos:D	*	*	*	*
!LO:LB:g=original	!	!	!	!
8D/L	.	8d\L	.	2a/
16D/L	.	16d\L	.	.
16E/J	.	16e\J	.	.
8D/	.	8d\	4f#X\	.
!LO:TX:t=P:problem=kreska pseudotaktowa	!	!LO:TX:t=P:problem=kreska pseudotaktowa	!	!
8C/J	.	8c\J	.	.
=35-	=35-	=35-	=35-	=35-
!LO:TX:t=P:problem=mixed beam	!	!	!LO:TX:t=P:problem=mixed beam	!
8GG/L	.	8B\L	8g\L	2g/
16G\L	6	8e\	16G/L	.
16A\JJ	.	.	16A/JJ	.
8G\L	6	8e\	8G/L	.
8F\J	6	8d\J	8F/J	.
*	*	*	*custos:E	*
!	!	!	!LO:LB:g=original	!
!	!	!	!	!LO:TX:t=P:problem=kreska pseudotaktowa
8E\L	6	8c\L	8E/L	2r
8A\	.	16c\L	8A/	.
.	.	16d\J	.	.
8A\	.	8c\	8A/	.
!LO:TX:t=P:problem=kreska pseudotaktowa	!	!LO:TX:t=P:problem=kreska pseudotaktowa	!	!
8G\J	.	8B\J	8G/J	.
=36-	=36-	=36-	=36-	=36-
8D/L	.	4A/	4F#X/	8r
8D/	.	.	.	8dd\L
8D/	.	4B\	2G/	8dd\
8D/J	.	.	.	8dd\J
8D/L	.	2A/	.	8dd\L
16D/L	.	.	.	16dd\L
16E/J	.	.	.	16ee\J
!	!	!	!LO:TX:t=P:problem=kreska pseudotaktowa	!
8D/	.	.	4F#X/	8dd\
!LO:TX:t=P:problem=kreska pseudotaktowa	!	!	!	!LO:TX:t=P:problem=kreska pseudotaktowa
8C/J	.	.	.	8cc\J
=37-	=37-	=37-	=37-	=37-
!LO:TX:t=P:problem=mixed beam	!	!	!LO:TX:t=P:problem=mixed beam	!
8GG/L	.	2G/	8G/L	8b\L
16G\L	6	.	16g\L	8ee\
16A\JJ	.	.	16a\J	.
8G\L	6	.	8g\	8ee\
8F\J	6	.	8fny\J	8dd\J
8E\L	6	2r	8e\L	8cc\L
8A\	.	.	8a\	16cc\L
.	.	.	.	16dd\J
8A\	.	.	8a\	8cc\
!LO:TX:t=P:problem=kreska pseudotaktowa	!	!	!	!LO:TX:t=P:problem=kreska pseudotaktowa
8G\J	.	.	8g\J	8b\J
*	*	*custos:d	*	*
!	!	!LO:LB:g=original	!	!
=38-	=38-	=38-	=38-	=38-
8D/L	.	8r	4f#X\	4a/
8D/	.	8d\L	.	.
8D/	.	8d\	2g\	4b/
8D/J	.	8d\J	.	.
8D/L	.	8d\L	.	2a/
16D/L	.	16d\L	.	.
16E/J	.	16e\J	.	.
!	!	!	!LO:TX:t=P:problem:# above	!
!	!	!	!LO:TX:t=P:problem=kreska pseudotaktowa	!
8D/	.	8d\	4f#X\	.
!LO:TX:t=P:problem=kreska pseudotaktowa	!	!LO:TX:t=P:problem=kreska pseudotaktowa	!	!
8C/J	.	8c\J	.	.
*	*	*	*	*custos:g
!	!	!	!	!LO:LB:g=original
=39-	=39-	=39-	=39-	=39-
!LO:TX:t=P:problem=mixed beam	!	!	!	!
8GG/L	.	8B/L	8g\L	2g/
16G\L	.	16G/L	16B\L	.
16A\J	.	16A/JJ	16c\JJ	.
8G\	.	8G/L	8B\L	.
8F\J	.	8F/J	8A\J	.
*custos:E	*	*	*	*
!LO:LB:g=original	!	!	!	!
!	!	!	!LO:TX:t=P:problem=kreska pseudotaktowa	!
8E\L	.	8E/L	2G/	8gg\L
16E\L	.	16E/L	.	16gg\L
16F\J	.	16F/J	.	16aa\J
8E\	.	8E/	.	8gg\
!LO:TX:t=P:problem=kreska pseudotaktowa	!	!	!	!LO:TX:t=P:problem=kreska pseudotaktowa
8D\J	.	8D/J	.	8ffny\J
=40-	=40-	=40-	=40-	=40-
1C	.	1C	8e\L	8gg\L
.	.	.	16e\L	16gg\L
.	.	.	16fny\JJ	16aa\J
.	.	.	8e\L	8gg\
.	.	.	8d\J	8ff\J
.	.	.	8e\L	8gg\L
.	.	.	16e\L	16gg\L
.	.	.	16f\JJ	16aa\J
.	.	.	8e\L	8gg\
!	!	!	!	!LO:TX:t=P:problem=kreska pseudotaktowa
.	.	.	8d\J	8ff\J
=41-	=41-	=41-	=41-	=41-
4A\	.	4r	4c#X\	4ee\
4F\	.	4A/	4Fny/	4dd\
4G\	-	4B-X\	4G/	2ee\
!LO:TX:t=P:problem=kreska pseudotaktowa	!	!	!	!
4A\	.	4A/	4A/	.
=42-	=42-	=42-	=42-	=42-
2.D/	.	2F#X/	2D/	2dd\
*	*	*	*clefF4	*
*	*	*	*custos:FF	*
!	!	!	!LO:LB:g=original	!
.	.	4r	4r	4r
4FF/	.	4f\	4FF/	4aa\
=43-	=43-	=43-	=43-	=43-
2GG/	-	2d\	2GG/	2bb-X\
!	!	!	!LO:TX:t=P:problem=kreska pseudotaktowa	!LO:TX:t=P:problem=kreska pseudotaktowa
2AA/	.	2c#X\	2AA/	2aa\
=44-	=44-	=44-	=44-	=44-
!LO:TX:t=P:problem=kreska pseudotaktowa	!	!	!	!
1D	.	1d	8D/	8ff#X\L
*	*	*	*clefC3	*
.	.	.	8f\L	8aa\
.	.	.	8f\	8aa\
.	.	.	8f\J	8aa\J
.	.	.	8f\L	8aa\L
.	.	.	16f\L	16aa\L
.	.	.	16g\JJ	16bb-X\J
.	.	.	8f\L	8aa\
!	!	!	!LO:TX:t=P:problem=kreska pseudotaktowa	!LO:TX:t=P:problem=kreska pseudotaktowa
.	.	.	8e\J	8gg\J
!	!	!LO:MO:mod=*null:null	!	!
*	*	*clefF4	*	*
*	*	*custos:FF	*	*
!	!	!LO:LB:g=original	!	!
=45-	=45-	=45-	=45-	=45-
8D/L	.	1r	8d\L	8ff#X\L
16D/L	.	.	16d\L	8bbny\
16E/J	.	.	16e\JJ	.
8D/	.	.	8d\L	8bb\
8C/J	.	.	8cny\J	8aa\J
8BB/L	.	.	8B/	8gg\L
8E/	.	.	8e\L	16gg\L
.	.	.	.	16aa\J
8E/	.	.	8e\	8gg\
!LO:TX:t=P:problem=kreska pseudotaktowa	!	!	!	!
8D/J	.	.	8d\J	8ff#\J
*	*	*	*	*custos:ee
!	!	!	!	!LO:LB:g=original
=46-	=46-	=46-	=46-	=46-
4AA/	.	4r	4c#X/	4ee\
!	!	!LO:MO:mod=*clefF4	!	!
*	*	*null	*	*
4FF/	.	4FF/	2d\	4ff\
4GG/	.	4GG/	.	2ee\
!	!	!	!LO:TX:b:t=P:problem:# below	!
!	!	!LO:TX:t=P:problem=kreska pseudotaktowa	!LO:TX:t=P:problem=kreska pseudotaktowa	!
4AA/	.	4AA/	4c#X/	.
=47-	=47-	=47-	=47-	=47-
8D/L	.	8DD/	4d\	2dd\
16D/L	.	16D/LL	.	.
16E/J	.	16E/JJ	.	.
8D/	.	8D/L	4r	.
8C/J	.	8C/J	.	.
!	!	!	!	!LO:TX:t=P:problem=kreska pseudotaktowa
8BB/L	.	8BB/L	8g\L	2r
8E/	.	8E/	16g\L	.
.	.	.	16a\JJ	.
8E/	.	8E/	8g\L	.
!LO:TX:t=P:problem=kreska pseudotaktowa	!	!LO:TX:t=P:problem=kreska pseudotaktowa	!LO:TX:t=P:problem=kreska pseudotaktowa	!
8D/J	.	8D/J	8f\J	.
=48-	=48-	=48-	=48-	=48-
4C#X/	.	4C#X/	4e\	4r
2D/	.	2D/	4f\	4ffny\
.	.	.	2e\	4gg\
4C#X/	.	4C#X/	.	4aa\
*custos:D	*	*	*	*
!LO:PB:g=original	!	!	!	!
=49-	=49-	=49-	=49-	=49-
2D/	.	2D/	8d\L	8dd\L
.	.	.	16f\L	16aa\L
!	!	!	!	!LO:SIC:v:s=16bb-\J
.	.	.	16g\JJ	16bb\J
*	*	*	*custos:f	*
!	!	!	!LO:LB:g=original	!
.	.	.	8f\L	8aa\
.	.	.	8e\J	8gg\J
!	!	!LO:MO:mod=*null:null	!	!
*	*	*clefC4	*	*
!LO:TX:t=P:problem=kreska pseudotaktowa	!	!	!	!
2D/	.	8r	2d\	4ff#X\
.	.	16d\LL	.	.
.	.	16e\J	.	.
!	!	!	!	!LO:TX:t=P:problem=kreska pseudotaktowa
.	.	8d\	.	4ff#\
!	!	!LO:TX:t=P:problem=kreska pseudotaktowa	!	!
.	.	8cny\J	.	.
!	!	!	!LO:MO:mod=*null:null	!
*	*	*	*clefF4	*
=50-	=50-	=50-	=50-	=50-
!LO:TX:t=P:problem=mixed beam	!	!	!	!
8GG/L	.	8Bny\L	8G\L	2gg\
16G\L	.	8e\	16G\L	.
16A\J	.	.	16A\JJ	.
8G\	.	8e\	8G\L	.
8F\J	.	8d\J	8F\J	.
8E\L	.	8c\L	8E\L	2r
8A\	.	16c\L	8A\	.
.	.	16d\J	.	.
8A\	.	8c\	8A\	.
!LO:TX:t=P:problem=kreska pseudotaktowa	!	!	!	!
8G\J	.	8B\J	8G\J	.
*	*	*custos:A	*	*
!	!	!LO:LB:g=original	!	!
=51-	=51-	=51-	=51-	=51-
4D/	.	4A/	4F#X\	4r
2G\	.	4G/	2G\	4dd\
.	.	2A/	.	4cc\
!	!	!	!LO:TX:t=P:problem:# above	!
!	!	!	!LO:TX:t=P:problem=kreska pseudotaktowa	!LO:TX:t=P:problem=kreska pseudotaktowa
4F#X\	.	.	4F#X\	4a/
=52-	=52-	=52-	=52-	=52-
!LO:TX:t=P:problem=kreska pseudotaktowa	!	!	!	!
1G	.	1G	2G\	8b\L
.	.	.	.	8dd\
.	.	.	.	8dd\
.	.	.	.	8dd\J
!	!	!	!LO:MO:mod=*null:null	!
*	*	*	*clefC3	*
.	.	.	8r	8dd\L
.	.	.	8g\L	16dd\L
.	.	.	.	16ee\JJ
.	.	.	8g\	8.dd\L
!	!	!	!LO:TX:t=P:problem=kreska pseudotaktowa	!
.	.	.	8g\J	.
!	!	!	!	!LO:TX:t=P:problem=kreska pseudotaktowa
.	.	.	.	16cc\Jk
=53-	=53-	=53-	=53-	=53-
8G\L	.	1r	8g\L	8b\L
16G\L	.	.	16g\L	8ee\
16A\J	.	.	16a\JJ	.
8G\	.	.	8g\L	8ee\
8Fny\J	.	.	8f\J	8dd\J
8E\L	.	.	8e\L	8cc\L
8A\	.	.	8a\	16cc\L
.	.	.	.	16dd\J
8A\	.	.	8a\	8cc\
!LO:TX:t=P:problem=kreska pseudotaktowa	!	!	!	!LO:TX:t=P:problem=kreska pseudotaktowa
8G\J	.	.	8g\J	8b\J
=54-	=54-	=54-	=54-	=54-
8D/L	.	8r	4f#X\	4a/
8D/	.	8d\L	.	.
8D/	.	8d\	2g\	4b/
8D/J	.	8d\J	.	.
8D/L	.	8d\L	.	2a/
16D/L	.	16d\L	.	.
16E/J	.	16e\J	.	.
!	!	!	!LO:TX:t=P:problem:# above	!
!	!	!	!LO:TX:t=P:problem=kreska pseudotaktowa	!
8D/	.	8d\	4f#X\	.
!LO:TX:t=P:problem=kreska pseudotaktowa	!	!LO:TX:t=P:problem=kreska pseudotaktowa	!	!
8Cny/J	.	8c\J	.	.
*custos:GG	*	*	*	*custos:g
!LO:LB:g=original	!	!	!	!LO:LB:g=original
=55-	=55-	=55-	=55-	=55-
!LO:TX:t=P:problem=mixed beam	!	!	!	!
8GG/L	.	8B\L	8g\	2g/
*	*	*	*clefF4	*
16G\L	.	8e\	16G\LL	.
16A\J	.	.	16A\JJ	.
8G\	.	8e\	8G\L	.
8F\J	.	8d\J	8Fny\J	.
*	*	*	*custos:E	*
!	!	!	!LO:LB:g=original	!
8E\L	.	8c\L	8E\L	2r
8A\	.	16c\L	8A\	.
.	.	16d\J	.	.
8A\	.	8c\	8A\	.
!LO:TX:t=P:problem=kreska pseudotaktowa	!	!LO:TX:t=P:problem=kreska pseudotaktowa	!LO:TX:t=P:problem=kreska pseudotaktowa	!
8G\J	.	8B\J	8G\J	.
=56-	=56-	=56-	=56-	=56-
4D/	.	4A/	4F#X\	8r
.	.	.	.	8dd\L
2G\	.	4B\	2G\	8dd\
.	.	.	.	8dd\J
.	.	2A/	.	8dd\L
.	.	.	.	16dd\L
.	.	.	.	16ee\J
!	!	!	!LO:TX:t=P:problem:# above	!
4F#X\	.	.	4F#X\	8dd\
!	!	!	!	!LO:TX:t=P:problem=kreska pseudotaktowa
.	.	.	.	8cc\J
=57-	=57-	=57-	=57-	=57-
2G\	.	8G/	2G\	8b\L
.	.	8c\L	.	8ee\
.	.	8c\	.	8ee\
.	.	8c\J	.	8ee\J
4GG/	.	8B\L	4r	8dd\L
.	.	16B\L	.	16dd\L
.	.	16c\J	.	16ee\J
!LO:TX:t=P:problem=kreska pseudotaktowa	!	!	!	!
4GG/	.	8B\	4GG/	8dd\
!	!	!	!	!LO:TX:t=P:problem=kreska pseudotaktowa
.	.	8G\J	.	8b\J
*	*	*custos:A	*	*
!	!	!LO:LB:g=original	!	!
=58-	=58-	=58-	=58-	=58-
2FF/	.	8A/L	2FF/	8cc\L
.	.	16A/L	.	16cc\L
.	.	16G/J	.	16b\J
.	.	8A/	.	8cc\
.	.	8c/J	.	8a\J
!	!	!	!	!LO:TX:t=P:problem=mixed beam
2GG/	.	8B\L	2GG/	8g/L
.	.	8B\	.	8dd\
.	.	8B\	.	8dd\
!	!	!LO:TX:t=P:problem=kreska pseudotaktowa	!	!LO:TX:t=P:problem=kreska pseudotaktowa
.	.	8B\J	.	8dd\J
=59-	=59-	=59-	=59-	=59-
!LO:TX:t=P:problem=kreska pseudotaktowa	!	!	!	!
1D	.	8B\L	1D	8dd\L
.	.	16B\L	.	16dd\L
.	.	16A\JJ	.	16cc\J
.	.	8B\L	.	8dd\
.	.	8G\J	.	8b\J
.	.	8F#X/L	.	8a/L
.	.	16F#/L	.	16a/L
.	.	16E/JJ	.	16g/J
.	.	8F#/L	.	8a/
!	!	!LO:TX:t=P:problem=kreska pseudotaktowa	!	!LO:TX:t=P:problem=kreska pseudotaktowa
.	.	8F#/J	.	8a/J
=60-	=60-	=60-	=60-	=60-
8G\L	.	8G/L	8GG/	2g/
!	!	!	!LO:MO:mod=*clefC3	!
*	*	*	*clefC4	*
8G\	.	16G/L	16B\LL	.
.	.	16G/JJ	16B\JJ	.
8G\	.	8G/L	8B\L	.
8G\J	.	8G/J	8B\J	.
4G\	.	8G/L	8B\L	8r
.	.	16G/L	16B\L	8g/L
.	.	16G/JJ	16B\JJ	.
!LO:TX:t=P:problem=kreska pseudotaktowa	!	!LO:TX:t=P:problem=kreska pseudotaktowa	!LO:TX:t=P:problem=kreska pseudotaktowa	!
4G\	.	4G/	4B\	8g/
.	.	.	.	8g/J
*	*	*	*	*custos:g
!	!	!	!	!LO:LB:g=original
=61-	=61-	=61-	=61-	=61-
8C/L	.	8c\L	8e\L	4g/
16C/L	.	16c\L	16e\L	.
16BB/J	.	16B\JJ	16d\JJ	.
8C/	.	8c\L	8e\L	4g/
8GG/J	.	8G\J	8d\J	.
*	*	*custos:c	*	*
!	!	!LO:LB:g=original	!	!
8C/L	.	8c\L	8e\L	2g/
8GG/	.	8G\	8d\	.
8C/	.	8c\	8e\	.
!LO:TX:t=P:problem=kreska pseudotaktowa	!	!	!	!
8GG/J	.	8G\J	8d\J	.
*custos:C	*	*	*	*
!LO:LB:g=original	!	!	!	!
=62-	=62-	=62-	=62-	=62-
8C/L	.	8e\L	8cny\L	4r
16C/L	.	16e\L	16c\L	.
!	!	!	!LO:SIC:s=16BJ	!
16BB/J	.	16d\J	16B\JJ	.
8C/	.	8e\	8c\	4gg\
!	!	!	!LO:SIC:s=8gJ	!
8GG/J	.	8d\J	8G/	.
!	!	!	!LO:SIC:s=8cL	!
8C/L	.	8e\L	8c\	4gg\
8GG/	.	8d\	8G/	.
!	!	!	!	!LO:TX:t=P:problem=kreska pseudotaktowa
8C/	.	8e\	8c\	4gg\
!	!	!	!LO:SIC:s=8GJ	!
!LO:TX:t=P:problem=kreska pseudotaktowa	!	!LO:TX:t=P:problem=kreska pseudotaktowa	!	!
8GG/J	.	8d\J	8G/	.
*	*	*	*custos:c	*
!	!	!	!LO:TX:t=P:problem:# above	!
=63-	=63-	=63-	=63-	=63-
0C	.	2c\	8.c\L	8.ee\L
.	.	.	16d\Jk	16ffny\Jk
.	.	.	8.e\L	8.gg\L
.	.	.	16fny\Jk	16aa\Jk
.	.	1Cny	8.e\L	8.gg\L
.	.	.	16f\Jk	16aa\Jk
.	.	.	8.e\L	8.gg\L
!	!	!	!LO:TX:t=P:problem=kreska pseudotaktowa	!LO:TX:t=P:problem=kreska pseudotaktowa
.	.	.	16d\Jk	16ff\Jk
=64-	=64-	=64-	=64-	=64-
.	.	.	8.c\L	8.ee\L
.	.	.	16d\Jk	16ff\Jk
.	.	.	8.e\L	8.gg\L
.	.	.	16f\Jk	16aa\Jk
.	.	2C/	8.e\L	8.gg\L
.	.	.	16f\Jk	16aa\Jk
.	.	.	8.e\L	8.gg\L
!	!	!	!LO:TX:t=P:problem=kreska pseudotaktowa	!LO:TX:t=P:problem=kreska pseudotaktowa
.	.	.	16d\Jk	16ff\Jk
=65-	=65-	=65-	=65-	=65-
1C	.	1C	4c\	4ee\
.	.	.	2e\	2gg\
.	.	.	8d\L	8ff\L
.	.	.	8c\J	8ee\J
=66-	=66-	=66-	=66-	=66-
!LO:TX:t=P:problem=kreska pseudotaktowa	!	!	!LO:TX:t=P:problem=kreska pseudotaktowa	!
1GG	.	1G	1B	1dd
!	!	!LO:MO:mod=*null:null	!	!
*	*	*clefF4	*	*
=67-	=67-	=67-	=67-	=67-
4G\	.	4G\	4B\	4dd\
8G\L	.	8G\L	8B\L	8dd\L
8G\J	.	8G\J	8B\J	8dd\J
4G\	.	4G\	4B\	4dd\
4G\	.	4G\	4B\	4dd\
*	*	*	*	*custos:dd
!	!	!	!	!LO:LB:g=original
=68-	=68-	=68-	=68-	=68-
4G\	.	4G\	4B\	4dd\
8G\L	.	8G\L	8B\L	8dd\L
8G\J	.	8G\J	8B\J	8dd\J
!LO:TX:t=P:problem=kreska pseudotaktowa	!	!	!	!
2G\	.	2G\	2B\	2dd\
*	*	*custos:C	*custos:c	*
!	!	!LO:LB:g=original	!LO:TX:t=P:problem:# above	!
=69-	=69-	=69-	=69-	=69-
2C/	.	2C/	2c\	2ee\
4C/	.	4C/	4c\	4ee\
4BB/	.	4BB/	4d\	4dd\
=70-	=70-	=70-	=70-	=70-
2C/	.	2C/	2e\	2cc\
2AA/	.	2AA/	2e\	2cc\
=71-	=71-	=71-	=71-	=71-
2.BB/	.	2.BB/	4d\	4b/
.	.	.	2B\	2dd\
4C/	.	4C/	8A/L	8cc\L
.	.	.	8G/J	8b\J
=72-	=72-	=72-	=72-	=72-
0D	.	0D	4F#X/	4a/
.	.	.	2d\	2b/
.	.	.	8c\L	8a/L
.	.	.	8B\J	8g/J
=73-	=73-	=73-	=73-	=73-
.	.	.	1A	2g/
.	.	.	.	2f#X/
=74-	=74-	=74-	=74-	=74-
!LO:SIC:s=1GG;	!	!LO:SIC:s=1GG;	!LO:SIC:s=1B;	!LO:SIC:s=1g;
1GGl;;	.	1GGl;;	1Bl;;	1gl;;
==	==	==	==	==
*-	*-	*-	*-	*-
!!!system-decoration: [(s1,s2,s3)]<s4>
!!LO:MO:ori
!!!RDF**kern: l = terminal long
!!LO:MO:end
!!!ENC: Andrzej Gręziak
!!!END: 2022-11-07
!!!ENC: Andrzej Kubiczek
!!!END: 2022-11-26
!!!ENC-modern: Andrzej Kubiczek
!!!END-modern: 2022-11-30
!!!filter-modern: shed -k -e "s/[ny]/$1/g; s/#X/#/g" | shed -e "s/^custos:/Xcustos:/I; s/^(\d+[\/\\]right)/$1yy/I" | shed -e "s/TX(.*):t=P:/tx$1:t=P:/LG" | sic -sq | modori -m  | autostem -r | tie -s | shed -e "s/-//B"
!!!YEC: Copyright 2022 Narodowy Instytut Fryderyka Chopina (https://polishscores.org)
!!!YEM: License CC-BY-4.0 (https://creativecommons.org/licenses/by/4.0)
